!!!OTL: Jn's Feld.
!!!OTL-incipit: MIT BLANKEN GESCHOSSEN AUF MUTIGEN ROSSEN
!!!COM: Nach Volksart
!!!ARE: Europa, Mitteleuropa, Deutschland
!!!SCT: F0631
!!!TXL: @@DE
!!!YEM: Copyright 1995, estate of Helmut Schaffrath.
**kern	**text	**text	**text
*ICvox	*	*	*
*clefG2	*	*	*
*M2/4	*	*	*
*k[b-e-]	*	*	*
*B-:	*	*	*
!LO:TX:a:t=Munter.	!	!	!
!LO:TX:a:t=P:only the highest voice encoded:problem	!	!	!
{8ff	1._Mit	2._Für	3._Es
=1	=1	=1	=1
4ff	blan-	hei-	brüllt
8ee-	-ken	-li-	die
8ee-	Ge-	-ge	Ka-
=2	=2	=2	=2
4dd	-ſchoſſen,	Rech-	-no-
8b-/}	.	-te	-ne,
{8dd	auf	ver-	im
=3	=3	=3	=3
4ee-	mu-	-gießt	pfei-
8dd	-thi-	in	-fen-
8dd	-gen	Ge-	-den
=4	=4	=4	=4
4cc/	Roſ-	-fech-	To-
8cc/}	-ſen	-te,	-ne
{8cc/	ʒieh'n	in	ver-
=5	=5	=5	=5
8ddL	Jä-	grauſenden	-ſen-
8ee-J	.	.	.
8dd}	-ger	.	-det
{8ee-	und	.	die
=6	=6	=6	=6
4ff	Rei-	Schlachten	Flin-
8dd	-ter	.	-te
8dd	hin-	gern	ihr
=7	=7	=7	=7
4ee-	-aus	Je-	töd-
8dd	in	-der	-ten-
8dd	das	ſein	-des
=8	=8	=8	=8
4cc	1._Feld.	2._Blut.	3._Blei.
8r}	.	.	.
{8dd	Es	Die	Und
=9	=9	=9	=9
8ccL	ru-	Schande	ſtür-
8ddJ	.	.	.
8cc	-fet	.	-ʒen
8dd	ʒur	er-	auch
=10	=10	=10	=10
4ee-	Wehre	-rei-	Glieder
8cc}	.	-che	.
{8cc	des	den	ʒer-
=11	=11	=11	=11
8ddL	Va-	Wicht,	-ſchmettert
8ee-J	.	.	.
8dd	-ter-	der	.
8ee-	-lands	dann	dar-
=12	=12	=12	=12
4ff	Eh-	fei-	-nie-
8dd}	-re,	-ge	-der,
{8dd	es	den	wer
=13	=13	=13	=13
4gg	geht	Kö-	fällt
8gg	nicht	-nig	und
8gg	in	nicht	wer
=14	=14	=14	=14
4ff	Kampf	ſchütʒt	ſie-
8dd}	für	und	-get,
{8dd	die	des	ſie
=15	=15	=15	=15
4ee-	Thorheit	Va-	Beide
8cc	.	-terlands	.
8cc	der	.	ſind
=16	=16	=16	=16
4dd	1._Welt,	2._Gut,	3._frei,
8r}	.	.	.
{8b-/	es	den	wer
=17	=17	=17	=17
4gg	geht	Kö-	fällt
8ee-	nicht	-nig	und
8gg	in	nicht	wer
=18	=18	=18	=18
4ff	Kampf	ſchütʒt	ſie-
8dd}	für	und	-get,
{8ff	die	des	ſie
=19	=19	=19	=19
8ffqq	.	.	.
4ee-	Thorheit	Va-	Bei-
8cc/	.	-terlands	-de
8an	der	.	ſind
=20	=20	=20	=20
4b-/	Welt.	Gut.	frei.
8r}	.	.	.
==	==	==	==
!!!AGN: Soldaten -, Jaeger - Lied
!!!ONB: ESAC (Essen Associative Code) Database: FINK
!!!AMT: simple duple
!!!AIN: vox
!!!EED: Helmut Schaffrath
!!!EEV: 1.0
!!!GTL: Soldaten- und Jaegerlieder
!!!source: Musikalischer Hausschatz der Deutschen. Eine Sammlung von über 1000 Liedern und Gesängen mit Singstimmen und Klavierbegleitung. Leipzig, Litterarisches Verlags-Haus.
!!!page: 415
!!!URL-scan: https://www.digitale-sammlungen.de/en/view/bsb11144622?page=382
!!!ENC: Anna Maria Matuszewska
!!!EEV: 2024/08/05
*-	*-	*-	*-
